X:592
M:C|
L:1/8
K:C
cBcd cdef|gfed cBAG|1 cEGc EcGc|dDdc cBAG:|2 cEGc dDdB c2c2||
geag fedc|BGdB c2c2||

